X: 42386
T: Wellerman, The
R: polka
M: 2/4
K: Eminor
[M:2/4]
B|EE E>G|BB B>B|cA A/B/c/d/|eB B>B|
EE E>G|BB B>c|BA GF|E2 E2||
e2 e>c|dB B>B|cA A/B/c/A/|BE E2|
e2 e>c|dB B>c|BA GF|E2 E2||

